packages/tokens/icons/clipboard2/size24Px.svg

<svg viewBox="0 0 24 24" fill="none" xmlns="http://www.w3.org/2000/svg" width="1em" height="1em"><path d="M19.5 6V20C19.5 20.8284 18.8284 21.5 18 21.5L6 21.5C5.17157 21.5 4.5 20.8284 4.5 20L4.5 6C4.5 5.17148 5.17137 4.5 5.9997 4.5L18.0003 4.5C18.8286 4.5 19.5 5.17148 19.5 6Z" stroke="currentColor"/><path d="M17.5 7V19C17.5 19.2761 17.2761 19.5 17 19.5H7C6.72386 19.5 6.5 19.2761 6.5 19L6.5 7C6.5 6.72366 6.72375 6.5 6.9997 6.5L17.0003 6.5C17.2762 6.5 17.5 6.72366 17.5 7Z" stroke="currentColor"/><path d="M8.5 5C8.5 4.72386 8.72386 4.5 9 4.5L15 4.5C15.2761 4.5 15.5 4.72386 15.5 5V6C15.5 6.27614 15.2761 6.5 15 6.5L9 6.5C8.72386 6.5 8.5 6.27614 8.5 6V5Z" stroke="currentColor"/><path d="M10.5 3.5C10.5 2.94772 10.9477 2.5 11.5 2.5L12.5 2.5C13.0523 2.5 13.5 2.94772 13.5 3.5C13.5 4.05228 13.0523 4.5 12.5 4.5H11.5C10.9477 4.5 10.5 4.05228 10.5 3.5Z" stroke="currentColor"/><circle cx="12" cy="12" r="3.5" stroke="currentColor"/><path d="M10.5 12L11.625 13.04L13.5 11.04" stroke="currentColor" stroke-linecap="round" stroke-linejoin="round"/><line x1="9.5" y1="17.5" x2="14.5" y2="17.5" stroke="currentColor" stroke-linecap="round"/></svg>

<svg xmlns="http://www.w3.org/2000/svg" fill="none" viewBox="0 0 24 24" width="1em" height="1em"><path stroke="currentColor" d="M19.5 6v14a1.5 1.5 0 0 1-1.5 1.5H6A1.5 1.5 0 0 1 4.5 20V6A1.5 1.5 0 0 1 6 4.5h12A1.5 1.5 0 0 1 19.5 6Z"/><path stroke="currentColor" d="M17.5 7v12a.5.5 0 0 1-.5.5H7a.5.5 0 0 1-.5-.5V7a.5.5 0 0 1 .5-.5h10a.5.5 0 0 1 .5.5Zm-9-2a.5.5 0 0 1 .5-.5h6a.5.5 0 0 1 .5.5v1a.5.5 0 0 1-.5.5H9a.5.5 0 0 1-.5-.5V5Zm2-1.5a1 1 0 0 1 1-1h1a1 1 0 1 1 0 2h-1a1 1 0 0 1-1-1Z"/><circle cx="12" cy="12" r="3.5" stroke="currentColor"/><path stroke="currentColor" stroke-linecap="round" stroke-linejoin="round" d="m10.5 12 1.125 1.04 1.875-2"/><path stroke="currentColor" stroke-linecap="round" d="M9.5 17.5h5"/></svg>
